X:302
T:Sbrando, Untitled
R:jig 48 sbrando
S:Trad
M:6/8
L:1/8
Q:1/8=140
K:D
F2G|:A2A ABA|F2F AGF|E2E GFE|F2D F2G|
|A2A ABA|F2F AGF|E2E GFE|1 D3 F2G:|2 D3EFE|
|:D3 E3|F3 EFE|DEF GFE|F2D F2G|
|A2A ABA|F2F AGF |E2E GFE|1 D3 EFE:|2 D3 DEF|
K:G
|:G2G GAB|c2c cBA|d2d cBA|B2G DEF|
|G2G GAB|c2c cBA|d2d cBA|1 G3 DEF:|2 G3 F2G|
w: A sbrando is a type of dance from the Piedmont region of Italy

